X:1022
T:Put Me in a Box
T:Put Me in the Big Chest
R:reel
H:Sometimes played as a 2 part tune, sometimes 4 parts.
H:First part sometimes doubled.
O:Scotland / Cape Breton, Canada
Z:id:hn-reel-1022
M:C|
L:1/8
K:A
EFAB c2cf | ecBA F2AF | EFAB cBcf |1 ecBc A2AF :|2 ecBc A3c ||
|: efec eAAc | efec BABc | efec efaf |1 ecBc A3c :|2 ecBc A2AF ||
|: EFAB c2cB | c2cB cef2 | EFAB cBcf |1 ecBc A2AF :|2 ecBc A3c ||
|: efec eAAc | efec BABc | efec efaf |1 ecBc A3c :|2 ecBc A2AF ||

